vendor/shopware/storefront/Resources/app/storefront/dist/assets/icon/default/arrow-move-vertical-axis.svg

<svg xmlns="http://www.w3.org/2000/svg" width="24" height="24" viewBox="0 0 24 24">
  <path fill="#758CA3" fill-rule="evenodd" d="M16.2928932,16.2928932 L20.5857864,12 L16.2928932,7.70710678 C15.9023689,7.31658249 15.9023689,6.68341751 16.2928932,6.29289322 C16.6834175,5.90236893 17.3165825,5.90236893 17.7071068,6.29289322 L22.7071068,11.2928932 C23.0976311,11.6834175 23.0976311,12.3165825 22.7071068,12.7071068 L17.7071068,17.7071068 C17.3165825,18.0976311 16.6834175,18.0976311 16.2928932,17.7071068 C15.9023689,17.3165825 15.9023689,16.6834175 16.2928932,16.2928932 Z M7.70710678,16.2928932 C8.09763107,16.6834175 8.09763107,17.3165825 7.70710678,17.7071068 C7.31658249,18.0976311 6.68341751,18.0976311 6.29289322,17.7071068 L1.29289322,12.7071068 C0.902368927,12.3165825 0.902368927,11.6834175 1.29289322,11.2928932 L6.29289322,6.29289322 C6.68341751,5.90236893 7.31658249,5.90236893 7.70710678,6.29289322 C8.09763107,6.68341751 8.09763107,7.31658249 7.70710678,7.70710678 L3.41421356,12 L7.70710678,16.2928932 Z M11,1 C11,0.44771525 11.4477153,3.38176876e-17 12,0 C12.5522847,-3.38176876e-17 13,0.44771525 13,1 L13,2 C13,2.55228475 12.5522847,3 12,3 C11.4477153,3 11,2.55228475 11,2 L11,1 Z M11,8 C11,7.44771525 11.4477153,7 12,7 C12.5522847,7 13,7.44771525 13,8 L13,9 C13,9.55228475 12.5522847,10 12,10 C11.4477153,10 11,9.55228475 11,9 L11,8 Z M11,15 C11,14.4477153 11.4477153,14 12,14 C12.5522847,14 13,14.4477153 13,15 L13,16 C13,16.5522847 12.5522847,17 12,17 C11.4477153,17 11,16.5522847 11,16 L11,15 Z M11,22 C11,21.4477153 11.4477153,21 12,21 C12.5522847,21 13,21.4477153 13,22 L13,23 C13,23.5522847 12.5522847,24 12,24 C11.4477153,24 11,23.5522847 11,23 L11,22 Z"/>
</svg>

<svg xmlns="http://www.w3.org/2000/svg" width="24" height="24" viewBox="0 0 24 24"><path fill="#758CA3" fill-rule="evenodd" d="M16.2929 16.2929 20.5858 12l-4.293-4.2929c-.3904-.3905-.3904-1.0237 0-1.4142.3906-.3905 1.0238-.3905 1.4143 0l5 5c.3905.3905.3905 1.0237 0 1.4142l-5 5c-.3905.3905-1.0237.3905-1.4142 0-.3905-.3905-.3905-1.0237 0-1.4142zm-8.5858 0c.3905.3905.3905 1.0237 0 1.4142-.3905.3905-1.0237.3905-1.4142 0l-5-5c-.3905-.3905-.3905-1.0237 0-1.4142l5-5c.3905-.3905 1.0237-.3905 1.4142 0 .3905.3905.3905 1.0237 0 1.4142L3.4142 12l4.293 4.2929zM11 1c0-.5523.4477-1 1-1s1 .4477 1 1v1c0 .5523-.4477 1-1 1s-1-.4477-1-1V1zm0 7c0-.5523.4477-1 1-1s1 .4477 1 1v1c0 .5523-.4477 1-1 1s-1-.4477-1-1V8zm0 7c0-.5523.4477-1 1-1s1 .4477 1 1v1c0 .5523-.4477 1-1 1s-1-.4477-1-1v-1zm0 7c0-.5523.4477-1 1-1s1 .4477 1 1v1c0 .5523-.4477 1-1 1s-1-.4477-1-1v-1z"/></svg>
